X:5787
T:Satins Blancs (Ph. Prieur)
O:england
M:3/4
L:1/4
K:C
gdB|gdB|fcA|fcA|ecG|edc|d3|dcB|\
gdB|gdB|fcA|fcA|ecG|edc|d3|dcB:|
c>de|efe|B3|B>AG|Ace|edc|d3|dcB|\
c>de|efe|B3|B>AG|A3|c3|d3|f3||


